X: 22971
T: Lass Of Carracastle, The
R: reel
M: 4/4
K: Dmajor
A2dB A2FA|(3Bcd AF GE E2|FD D2 FA A2|(3Bcd eg fddB|
A2dB A2FA|(3Bcd AF GE E2|FD D2 FA A2|(3Bcd eg fddg||
faaf g2ef|gfed cAA2|faaf g2fg|afge fddg|
faaf g2ef|gfed cAAc|BABd cdec|dfag fdd2||

